svg/uptime-kuma.svg

<svg height="640" preserveAspectRatio="xMidYMid meet" viewBox="0 0 640 640" width="640" xmlns="http://www.w3.org/2000/svg" xmlns:xlink="http://www.w3.org/1999/xlink"><defs><linearGradient id="a" gradientUnits="userSpaceOnUse" x1="256.07" x2="609.11" y1="1132.14" y2="1480.42"><stop offset="0" stop-color="#c2efd2"/><stop offset="1" stop-color="#8ff0e5"/></linearGradient><path id="b" d="m-96.99-586.14c39.75-33.71 91.2-18.61 116.25 5.68 12.17 11.8 37.31 34.1 21.71 88.79-8.21 28.8-30.56 55.27-67.02 79.4 10.98 34.42 20.45 67.51 28.41 99.27 11.93 47.64 11.19 123.33-28.41 157.6-41.22 35.67-140.86 51.31-208.19 52.31-67.33.99-171.95-10-227.36-52.31-55.41-42.3-50.64-101.67-36.44-157.6 9.46-37.28 21.61-70.38 36.44-99.27-43.94-29.03-68.94-55.49-75-79.4-9.08-35.87 5.67-73.94 35.48-94.47s65.94-20.76 100.67 0c23.15 13.84 45.66 44.01 67.53 90.52 45.07-9.63 77.96-13.95 98.68-12.98 19.5.92 47.67 5.24 84.52 12.98 13.91-42.33 31.49-72.5 52.73-90.52z"/><linearGradient id="c" gradientUnits="userSpaceOnUse" x1="-440.25" x2="-100.49" y1="-388.59" y2="-147.33"><stop offset="0" stop-color="#5cdd8b"/><stop offset="1" stop-color="#7ae6a1"/></linearGradient><path id="d" d="m-86.03-10.69c24.68 0 44.69 20.01 44.69 44.7v380.64c0 24.68-20.01 44.69-44.69 44.69-49.98 0-155.22 0-205.2 0-24.69 0-44.7-20.01-44.7-44.69 0-85.07 0-295.58 0-380.64 0-24.69 20.01-44.7 44.7-44.7z"/><linearGradient id="e" gradientUnits="userSpaceOnUse" x1="-791.65" x2="892.1" y1="-33.27" y2="418.94"><stop offset="0" stop-color="#5cdd8b"/><stop offset="1" stop-color="#5ae98f"/></linearGradient><path id="f" d="m-257.95 458.12c10.03-8.5 23.02-4.69 29.34 1.44 3.07 2.98 9.42 8.61 5.48 22.41-2.07 7.27-7.71 13.95-16.92 20.04 2.78 8.69 5.17 17.05 7.17 25.06 3.02 12.03 2.83 31.14-7.17 39.79-10.4 9-35.55 12.95-52.55 13.2s-43.41-2.52-57.39-13.2c-13.99-10.68-12.78-25.67-9.2-39.79 2.39-9.41 5.46-17.76 9.2-25.06-11.09-7.32-17.4-14-18.93-20.04-2.3-9.05 1.43-18.66 8.95-23.85 7.53-5.18 16.65-5.24 25.41 0 5.85 3.5 11.53 11.11 17.05 22.85 11.38-2.43 19.68-3.52 24.91-3.27 4.92.23 12.04 1.32 21.34 3.27 3.51-10.68 7.94-18.3 13.31-22.85z"/><path id="g" d="m490.4 235.64c53.69 122.74 53.69 199.7 0 230.86-80.55 46.74-290.44 60.99-350.86-10.86-40.28-47.9-40.28-121.24 0-220 40.96-67.46 99.17-101.19 174.63-101.19 75.47 0 134.21 33.73 176.23 101.19z"/><linearGradient id="h"><stop offset="0" stop-color="#5cdd8b"/><stop offset="1" stop-color="#86e6a9"/></linearGradient><linearGradient id="i" gradientUnits="userSpaceOnUse" x1="259.78" x2="463.85" xlink:href="#h" y1="261.15" y2="456.49"/><linearGradient id="j" gradientUnits="userSpaceOnUse" x1="330.1" x2="419.69" xlink:href="#h" y1="-733.26" y2="-707.1"/><linearGradient id="k" gradientUnits="userSpaceOnUse" x1="605.5" x2="630.64" xlink:href="#h" y1="-400.8" y2="-310.92"/></defs><path d="m407.55 916.24c63.7 0 115.34 51.64 115.34 115.33v296.17c0 63.7-51.64 115.34-115.34 115.34-82.3 0-213.87 0-296.17 0-63.69 0-115.33-51.64-115.33-115.34 0-82.3 0-213.86 0-296.17 0-63.69 51.64-115.33 115.33-115.33z" fill="url(#a)"/><path d="m-467.41 394.63c0 160.13-130.01 290.13-290.14 290.13s-290.14-130-290.14-290.13 130.01-290.14 290.14-290.14 290.14 130.01 290.14 290.14z" fill="#ebf0ed"/><use fill="url(#c)" xlink:href="#b"/><use fill="none" stroke="#fff" stroke-opacity=".57" stroke-width="98" xlink:href="#b"/><use fill="url(#e)" xlink:href="#d"/><use fill="none" stroke="#f2f2f2" stroke-opacity=".51" stroke-width="60" xlink:href="#d"/><use fill="#d8ad9a" xlink:href="#f"/><use fill="none" stroke="#fff" stroke-width="17" xlink:href="#f"/><use fill="url(#i)" xlink:href="#g"/><use fill="none" stroke="#f2f2f2" stroke-opacity=".51" stroke-width="200" xlink:href="#g"/><path d="m393.81-775.89c34.45 27.8 46.18 50.35 35.19 67.67-16.49 25.98-75.84 62.15-104.5 50.29-19.11-7.9-30.28-29.39-33.53-64.48 1.72-26.02 13.64-44.78 35.76-56.28s44.48-10.57 67.08 2.8z" fill="url(#j)"/><path d="m675.36-369.24c-5.39 43.93-18.34 65.81-38.85 65.63-30.77-.26-92.84-31.54-97.92-62.13-3.39-20.4 8.95-41.25 37.02-62.55 23-12.29 45.22-12.08 66.68.62 21.45 12.7 32.48 32.18 33.07 58.43z" fill="url(#k)"/></svg>

<svg xmlns="http://www.w3.org/2000/svg" xmlns:xlink="http://www.w3.org/1999/xlink" width="640" height="640" preserveAspectRatio="xMidYMid meet" version="1.1" viewBox="0 0 640 640"><defs><path id="a1LdTs1gvU" d="M407.55 916.24C471.25 916.24 522.89 967.88 522.89 1031.57C522.89 1113.88 522.89 1245.44 522.89 1327.74C522.89 1391.44 471.25 1443.08 407.55 1443.08C325.25 1443.08 193.68 1443.08 111.38 1443.08C47.69 1443.08 -3.95 1391.44 -3.95 1327.74C-3.95 1245.44 -3.95 1113.88 -3.95 1031.57C-3.95 967.88 47.69 916.24 111.38 916.24C193.68 916.24 325.25 916.24 407.55 916.24Z"/><linearGradient id="gradientcoH7TNh19" x1="256.07" x2="609.11" y1="1132.14" y2="1480.42" gradientUnits="userSpaceOnUse"><stop style="stop-color:#c2efd2;stop-opacity:1" offset="0%"/><stop style="stop-color:#8ff0e5;stop-opacity:1" offset="100%"/></linearGradient><path id="a1uaEBd4xM" d="M-467.41 394.63C-467.41 554.76 -597.42 684.76 -757.55 684.76C-917.68 684.76 -1047.69 554.76 -1047.69 394.63C-1047.69 234.5 -917.68 104.49 -757.55 104.49C-597.42 104.49 -467.41 234.5 -467.41 394.63Z"/><path id="f8p7QlEjN3" d="M-96.99 -586.14C-57.24 -619.85 -5.79 -604.75 19.26 -580.46C31.43 -568.66 56.57 -546.36 40.97 -491.67C32.76 -462.87 10.41 -436.4 -26.05 -412.27C-15.07 -377.85 -5.6 -344.76 2.36 -313C14.29 -265.36 13.55 -189.67 -26.05 -155.4C-67.27 -119.73 -166.91 -104.09 -234.24 -103.09C-301.57 -102.1 -406.19 -113.09 -461.6 -155.4C-517.01 -197.7 -512.24 -257.07 -498.04 -313C-488.58 -350.28 -476.43 -383.38 -461.6 -412.27C-505.54 -441.3 -530.54 -467.76 -536.6 -491.67C-545.68 -527.54 -530.93 -565.61 -501.12 -586.14C-471.31 -606.67 -435.18 -606.9 -400.45 -586.14C-377.3 -572.3 -354.79 -542.13 -332.92 -495.62C-287.85 -505.25 -254.96 -509.57 -234.24 -508.6C-214.74 -507.68 -186.57 -503.36 -149.72 -495.62C-135.81 -537.95 -118.23 -568.12 -96.99 -586.14Z"/><linearGradient id="gradienta4Tg99ZOOp" x1="-440.25" x2="-100.49" y1="-388.59" y2="-147.33" gradientUnits="userSpaceOnUse"><stop style="stop-color:#5cdd8b;stop-opacity:1" offset="0%"/><stop style="stop-color:#7ae6a1;stop-opacity:1" offset="100%"/></linearGradient><path id="d32ZZRxd1S" d="M-86.03 -10.69C-61.35 -10.69 -41.34 9.32 -41.34 34.01C-41.34 119.07 -41.34 329.58 -41.34 414.65C-41.34 439.33 -61.35 459.34 -86.03 459.34C-136.01 459.34 -241.25 459.34 -291.23 459.34C-315.92 459.34 -335.93 439.33 -335.93 414.65C-335.93 329.58 -335.93 119.07 -335.93 34.01C-335.93 9.32 -315.92 -10.69 -291.23 -10.69C-241.25 -10.69 -136.01 -10.69 -86.03 -10.69Z"/><linearGradient id="gradientb1JxIe4xUm" x1="-791.65" x2="892.1" y1="-33.27" y2="418.94" gradientUnits="userSpaceOnUse"><stop style="stop-color:#5cdd8b;stop-opacity:1" offset="0%"/><stop style="stop-color:#5ae98f;stop-opacity:1" offset="100%"/></linearGradient><path id="b19LRRbPrG" d="M-257.95 458.12C-247.92 449.62 -234.93 453.43 -228.61 459.56C-225.54 462.54 -219.19 468.17 -223.13 481.97C-225.2 489.24 -230.84 495.92 -240.05 502.01C-237.27 510.7 -234.88 519.06 -232.88 527.07C-229.86 539.1 -230.05 558.21 -240.05 566.86C-250.45 575.86 -275.6 579.81 -292.6 580.06C-309.6 580.31 -336.01 577.54 -349.99 566.86C-363.98 556.18 -362.77 541.19 -359.19 527.07C-356.8 517.66 -353.73 509.31 -349.99 502.01C-361.08 494.69 -367.39 488.01 -368.92 481.97C-371.22 472.92 -367.49 463.31 -359.97 458.12C-352.44 452.94 -343.32 452.88 -334.56 458.12C-328.71 461.62 -323.03 469.23 -317.51 480.97C-306.13 478.54 -297.83 477.45 -292.6 477.7C-287.68 477.93 -280.56 479.02 -271.26 480.97C-267.75 470.29 -263.32 462.67 -257.95 458.12Z"/><path id="bN5StdyPU" d="M490.4 235.64C544.09 358.38 544.09 435.34 490.4 466.5C409.85 513.24 199.96 527.49 139.54 455.64C99.26 407.74 99.26 334.4 139.54 235.64C180.5 168.18 238.71 134.45 314.17 134.45C389.64 134.45 448.38 168.18 490.4 235.64Z"/><linearGradient id="gradientb1HT15TsY0" x1="259.78" x2="463.85" y1="261.15" y2="456.49" gradientUnits="userSpaceOnUse"><stop style="stop-color:#5cdd8b;stop-opacity:1" offset="0%"/><stop style="stop-color:#86e6a9;stop-opacity:1" offset="100%"/></linearGradient><path id="arh6miPP2" d="M393.81 -775.89C428.26 -748.09 439.99 -725.54 429 -708.22C412.51 -682.24 353.16 -646.07 324.5 -657.93C305.39 -665.83 294.22 -687.32 290.97 -722.41C292.69 -748.43 304.61 -767.19 326.73 -778.69C348.85 -790.19 371.21 -789.26 393.81 -775.89Z"/><linearGradient id="gradientc2g6rBSAiq" x1="330.1" x2="419.69" y1="-733.26" y2="-707.1" gradientUnits="userSpaceOnUse"><stop style="stop-color:#5cdd8b;stop-opacity:1" offset="0%"/><stop style="stop-color:#86e6a9;stop-opacity:1" offset="100%"/></linearGradient><path id="a2VENFzCvL" d="M675.36 -369.24C669.97 -325.31 657.02 -303.43 636.51 -303.61C605.74 -303.87 543.67 -335.15 538.59 -365.74C535.2 -386.14 547.54 -406.99 575.61 -428.29C598.61 -440.58 620.83 -440.37 642.29 -427.67C663.74 -414.97 674.77 -395.49 675.36 -369.24Z"/><linearGradient id="gradientc18GuJy4sZ" x1="605.5" x2="630.64" y1="-400.8" y2="-310.92" gradientUnits="userSpaceOnUse"><stop style="stop-color:#5cdd8b;stop-opacity:1" offset="0%"/><stop style="stop-color:#86e6a9;stop-opacity:1" offset="100%"/></linearGradient></defs><g><g><g><use fill="url(#gradientcoH7TNh19)" opacity="1" xlink:href="#a1LdTs1gvU"/></g><g><use fill="#ebf0ed" fill-opacity="1" opacity="1" xlink:href="#a1uaEBd4xM"/></g><g><use fill="url(#gradienta4Tg99ZOOp)" opacity="1" xlink:href="#f8p7QlEjN3"/><g><use fill-opacity="0" stroke="#fff" stroke-opacity=".57" stroke-width="98" opacity="1" xlink:href="#f8p7QlEjN3"/></g></g><g><use fill="url(#gradientb1JxIe4xUm)" opacity="1" xlink:href="#d32ZZRxd1S"/><g><use fill-opacity="0" stroke="#f2f2f2" stroke-opacity=".51" stroke-width="60" opacity="1" xlink:href="#d32ZZRxd1S"/></g></g><g><use fill="#d8ad9a" fill-opacity="1" opacity="1" xlink:href="#b19LRRbPrG"/><g><use fill-opacity="0" stroke="#fff" stroke-opacity="1" stroke-width="17" opacity="1" xlink:href="#b19LRRbPrG"/></g></g><g><use fill="url(#gradientb1HT15TsY0)" opacity="1" xlink:href="#bN5StdyPU"/><g><use fill-opacity="0" stroke="#f2f2f2" stroke-opacity=".51" stroke-width="200" opacity="1" xlink:href="#bN5StdyPU"/></g></g><g><use fill="url(#gradientc2g6rBSAiq)" opacity="1" xlink:href="#arh6miPP2"/></g><g><use fill="url(#gradientc18GuJy4sZ)" opacity="1" xlink:href="#a2VENFzCvL"/></g></g></g></svg>
